assets/icons/icon_ferrum.svg

<svg width="30" height="30" viewBox="0 0 30 30" fill="none" xmlns="http://www.w3.org/2000/svg">
<g clip-path="url(#clip0_89_51)">
<path d="M15.0004 28.9535C22.7067 28.9535 28.9539 22.7063 28.9539 15C28.9539 7.2937 22.7067 1.04651 15.0004 1.04651C7.29406 1.04651 1.04688 7.2937 1.04688 15C1.04688 22.7063 7.29406 28.9535 15.0004 28.9535Z" stroke="white" stroke-width="1.99336"/>
<path d="M14.3913 8.34924V10.1672H9.99797V13.3675H14.2398V15.1855H9.99797V20.9801H8.06641V8.34924H14.3913ZM20.8993 18.2911L22.4522 19.1622C22.0986 19.7934 21.6504 20.2795 21.1076 20.6203C20.489 21.0243 19.7063 21.2263 18.7595 21.2263C17.6485 21.2263 16.7522 20.8855 16.0704 20.2037C15.2876 19.421 14.8963 18.4047 14.8963 17.1549C14.8963 15.842 15.3192 14.7499 16.1651 13.8788C16.8847 13.1592 17.7747 12.7994 18.8352 12.7994C19.8704 12.7994 20.7225 13.1466 21.3917 13.8409C22.1365 14.6111 22.509 15.7346 22.509 17.2117V17.4389H16.79C16.8405 18.108 17.0677 18.6446 17.4718 19.0486C17.8126 19.3894 18.286 19.5599 18.892 19.5599C19.3844 19.5599 19.8073 19.4273 20.1608 19.1622C20.4511 18.935 20.6973 18.6446 20.8993 18.2911ZM16.9226 15.924H20.6153C20.5395 15.4822 20.3502 15.1224 20.0472 14.8446C19.7189 14.5416 19.3023 14.3901 18.7973 14.3901C18.2671 14.3901 17.8316 14.5605 17.4907 14.9014C17.2129 15.1539 17.0235 15.4947 16.9226 15.924Z" fill="white"/>
</g>
<defs>
<clipPath id="clip0_89_51">
<rect width="30" height="30" fill="white"/>
</clipPath>
</defs>
</svg>

<svg xmlns="http://www.w3.org/2000/svg" width="30" height="30" fill="none" viewBox="0 0 30 30"><g clip-path="url(#a)"><path stroke="#fff" stroke-width="1.993" d="M15 28.954c7.707 0 13.954-6.248 13.954-13.954S22.707 1.047 15 1.047C7.294 1.047 1.047 7.294 1.047 15S7.294 28.953 15 28.953Z"/><path fill="#fff" d="M14.391 8.35v1.817H9.998v3.2h4.242v1.818H9.998v5.795H8.066V8.35zM20.9 18.29l1.553.871q-.53.947-1.344 1.458-.929.606-2.349.606-1.666 0-2.689-1.022-1.173-1.175-1.174-3.05 0-1.968 1.27-3.275 1.079-1.08 2.67-1.08 1.552 0 2.556 1.042 1.117 1.156 1.117 3.37v.228H16.79q.075 1.004.682 1.61.51.51 1.42.51.738 0 1.269-.397.435-.34.738-.87m-3.976-2.367h3.692a1.84 1.84 0 0 0-.568-1.08q-.492-.453-1.25-.454-.795 0-1.306.511-.418.38-.568 1.023"/></g><defs><clipPath id="a"><path fill="#fff" d="M0 0h30v30H0z"/></clipPath></defs></svg>
